X:207
T:Gigue a Trois
Z:robin.beech@mcgill.ca
S:Le Vent du Nord: Les Amants Du Saint-Laurent
R:jig
M:6/8
L:1/8
K:G
D2G BAG | FAA cEF |GBd e2d | D2G BAG | FAA cEF |1 GBd GBd :|2 GdB G2B ||
d2B c2A | B2G E3 | DGG GFG | BAG AFD |d2Bc2A | B2G E3 | DGG GBd | cAF G2B |
d2c- c2 B- | B2 GE3 | DGG GFG | BAG AFD |d2B c2A | B2G E3 | DGG GBd | cAF G2A ||
B2A G2e | dBG DGB | cBc DFA | BAG FED | B2A G2g | dBG DGB | cAF DEF | GDB, G,3:|
